icons/svg/airplay.svg

﻿<?xml version="1.0" encoding="utf-8"?>
<!DOCTYPE svg PUBLIC "-//W3C//DTD SVG 1.1//EN" "http://www.w3.org/Graphics/SVG/1.1/DTD/svg11.dtd">
<svg xmlns="http://www.w3.org/2000/svg" xmlns:xlink="http://www.w3.org/1999/xlink" version="1.1" baseProfile="full" width="24" height="24" viewBox="0 0 24.00 24.00" enable-background="new 0 0 24.00 24.00" xml:space="preserve">
	<path fill="#000000" fill-opacity="1" stroke-width="0.2" stroke-linejoin="round" d="M 6,22.005L 17.9963,22.005L 12.0012,16.0038M 21,3L 2.99625,3C 1.89874,3 1,3.90375 1,5.0025L 1,17.005C 1,18.1025 1.89874,19.0013 2.99625,19.0013L 7.00124,19.0013L 7.00124,17.005L 2.99625,17.005L 2.99625,5.0025L 21,5.0025L 21,17.005L 17.0012,17.005L 17.0012,19.0013L 21,19.0013C 22.0987,19.0013 22.9962,18.1025 22.9962,17.005L 22.9962,5.0025C 22.9962,3.90375 22.0987,3 21,3 Z "/>
</svg>

<svg xmlns="http://www.w3.org/2000/svg" version="1.1" baseProfile="full" width="24" height="24" viewBox="0 0 24.00 24.00" xml:space="preserve"><path fill="#000" fill-opacity="1" stroke-width=".2" stroke-linejoin="round" d="M6 22.005h11.996l-5.995-6M21 3H2.996C1.9 3 1 3.904 1 5.003v12.002C1 18.103 1.9 19 2.996 19H7v-1.995H2.997V5.003H21v12.002h-4V19h4c1.1 0 1.996-.898 1.996-1.995V5.003C22.996 3.903 22.1 3 21 3z"/></svg>
